app/_assets/images/Kogo-gradient.svg

<svg height="39" viewBox="0 0 120 39" width="120" xmlns="http://www.w3.org/2000/svg"><g fill="none" fill-rule="evenodd"><path d="m110.095922 26.2962963h5.619555v-8.6419753h-5.619555zm5.588508-12.037037h4.31557v16.0493827c0 2.654321-.279425 3.1172839-.993513 3.8271605-.55885.5864197-1.459221.8641975-3.011584.8641975h-6.302595l-1.955978-2.1604938v-.8950618h7.9481v-2.191358h-5.433272c-1.645505 0-2.483781-.308642-3.166821-.9876543-.90037-.9259259-1.272938-2.9320988-1.272938-6.7283951s.434662-5.8950617 1.36608-6.8518518c.714087-.6790124 1.583411-.9567901 3.135774-.9567901l3.228916.0308642 2.142261 1.9444444zm-50.9175162-4.2592593h5.0917516l-7.3271547 9.2592593 7.6376274 10.4629629h-5.4022243l-5.8058387-8.2098765h-1.3660797v8.2098765h-4.5949954v-19.7222222h4.5949954v7.654321h1.3660797zm33.5310473 9.1358025v-1.4197531h-1.5523633c-.0310473 0-.0310473 0-.0620946 0h-1.2108433c-.0310473 0-.0310473 0-.0620946 0h-2.3906394v1.4197531 10.5246913h-4.2845227v-15.4012345h2.8253012 1.4592215v.2777777 1.6666667l2.1422613-1.9444444h1.2418906c.1862836-.0308642.4036145-.0308642.6209454-.0308642h1.8628359c1.3039849 0 2.1422609.2777777 2.7321599.8641975.651992.6172839.90037 1.4197531.90037 3.7037037v10.8641975h-4.2845225v-10.3395061c.0620946-.0617284.0620946-.1234568.0620946-.1851852zm-22.5713624 7.1296296h5.6195551v-8.6419753h-5.6195551zm.1862836 3.3950617c-1.5523633 0-2.3906395-.2469136-3.0426321-.9567901-.9935125-1.0185185-1.3971269-2.4074074-1.3971269-6.7592593 0-4.382716.4036144-5.7407407 1.3971269-6.7901234.6519926-.6790124 1.4902688-.9259259 3.0426321-.9259259h5.2159407c1.5523633 0 2.3906395.2469135 3.0426321.9259259.9935125 1.0493827 1.3971269 2.4074074 1.3971269 6.7901234 0 4.3827161-.4036144 5.7407408-1.3971269 6.7592593-.6830399.7098765-1.4902688.9567901-3.0426321.9567901z" fill="#043558"/><path d="m14 33.3688889 1.0606061-1.3688889h7.8484848l4.0909091 5.2266667-.7272727 1.7733333h-10.1212121l.2424242-1.7733333z" fill="#169fcc"/><path d="m16.4 15.5471311 3.7897092-6.5471311h4.4161074l19.7941834 22.9918033-1.5346756 7.0081967h-8.4876958l.5324385-1.9672131z" fill="#14b59a"/><path d="m21 7.75605214 1.8146067-3.3556797 5.4438203-4.40037244 9.3277153 7.31284916-1.2097378 1.23463687 1.6235955 2.24767227v2.405959l-4.6479401 3.7988827-7.7996254-9.24394786z" fill="#1bc263"/><path d="m6.58517555 22.3777778h2.46553966l6.42912879-5.3777778 8.520156 9.9-2.4031209 3.6055556h-7.8647595l-5.43042909 6.9055555-1.24837452 1.5888889h-7.05331599v-8.4638889z" fill="#16bdcc"/></g></svg>

<?xml version="1.0" encoding="UTF-8"?>
<svg width="120px" height="39px" viewBox="0 0 120 39" version="1.1" xmlns="http://www.w3.org/2000/svg" xmlns:xlink="http://www.w3.org/1999/xlink">
    <!-- Generator: Sketch 52.2 (67145) - http://www.bohemiancoding.com/sketch -->
    <title>kong-combination-mark-colors</title>
    <desc>Created with Sketch.</desc>
    <g id="Page-1" stroke="none" stroke-width="1" fill="none" fill-rule="evenodd">
        <g id="Desktop-HD" transform="translate(-59.000000, -26.000000)">
            <g id="01-HEADER" transform="translate(54.000000, 26.000000)">
                <g id="kong-combination-mark-colors" transform="translate(5.000000, 0.000000)">
                    <path d="M110.095922,26.2962963 L115.715477,26.2962963 L115.715477,17.654321 L110.095922,17.654321 L110.095922,26.2962963 Z M115.68443,14.2592593 L120,14.2592593 L120,30.308642 C120,32.962963 119.720575,33.4259259 119.006487,34.1358025 C118.447637,34.7222222 117.547266,35 115.994903,35 L109.692308,35 L107.73633,32.8395062 L107.73633,31.9444444 L115.68443,31.9444444 L115.68443,29.7530864 L110.251158,29.7530864 C108.605653,29.7530864 107.767377,29.4444444 107.084337,28.7654321 C106.183967,27.8395062 105.811399,25.8333333 105.811399,22.037037 C105.811399,18.2407407 106.246061,16.1419753 107.177479,15.1851852 C107.891566,14.5061728 108.76089,14.2283951 110.313253,14.2283951 L113.542169,14.2592593 L115.68443,16.2037037 L115.68443,14.2592593 Z M64.7669138,10 L69.8586654,10 L62.5315107,19.2592593 L70.1691381,29.7222222 L64.7669138,29.7222222 L58.9610751,21.5123457 L57.5949954,21.5123457 L57.5949954,29.7222222 L53,29.7222222 L53,10 L57.5949954,10 L57.5949954,17.654321 L58.9610751,17.654321 L64.7669138,10 Z M98.2979611,19.1358025 L98.2979611,17.7160494 L96.7455978,17.7160494 C96.7145505,17.7160494 96.7145505,17.7160494 96.6835032,17.7160494 L95.4726599,17.7160494 C95.4416126,17.7160494 95.4416126,17.7160494 95.4105653,17.7160494 L93.0199259,17.7160494 L93.0199259,19.1358025 L93.0199259,29.6604938 L88.7354032,29.6604938 L88.7354032,14.2592593 L91.5607044,14.2592593 L93.0199259,14.2592593 L93.0199259,14.537037 L93.0199259,16.2037037 L95.1621872,14.2592593 L96.4040778,14.2592593 C96.5903614,14.2283951 96.8076923,14.2283951 97.0250232,14.2283951 L98.8878591,14.2283951 C100.191844,14.2283951 101.03012,14.5061728 101.620019,15.0925926 C102.272011,15.7098765 102.520389,16.5123457 102.520389,18.7962963 L102.520389,29.6604938 L98.2358665,29.6604938 L98.2358665,19.3209877 C98.2979611,19.2592593 98.2979611,19.1975309 98.2979611,19.1358025 Z M75.7265987,26.2654321 L81.3461538,26.2654321 L81.3461538,17.6234568 L75.7265987,17.6234568 L75.7265987,26.2654321 Z M75.9128823,29.6604938 C74.360519,29.6604938 73.5222428,29.4135802 72.8702502,28.7037037 C71.8767377,27.6851852 71.4731233,26.2962963 71.4731233,21.9444444 C71.4731233,17.5617284 71.8767377,16.2037037 72.8702502,15.154321 C73.5222428,14.4753086 74.360519,14.2283951 75.9128823,14.2283951 L81.128823,14.2283951 C82.6811863,14.2283951 83.5194625,14.4753086 84.1714551,15.154321 C85.1649676,16.2037037 85.568582,17.5617284 85.568582,21.9444444 C85.568582,26.3271605 85.1649676,27.6851852 84.1714551,28.7037037 C83.4884152,29.4135802 82.6811863,29.6604938 81.128823,29.6604938 L75.9128823,29.6604938 Z" id="Shape" fill="#043558"></path>
                    <polygon id="Shape" fill="#169FCC" points="14 33.3688889 15.0606061 32 22.9090909 32 27 37.2266667 26.2727273 39 16.1515152 39 16.3939394 37.2266667"></polygon>
                    <polygon id="Shape" fill="#14B59A" points="16.4 15.5471311 20.1897092 9 24.6058166 9 44.4 31.9918033 42.8653244 39 34.3776286 39 34.9100671 37.0327869"></polygon>
                    <polygon id="Shape" fill="#1BC263" points="21 7.75605214 22.8146067 4.40037244 28.258427 0 37.5861423 7.31284916 36.3764045 8.54748603 38 10.7951583 38 13.2011173 33.3520599 17 25.5524345 7.75605214"></polygon>
                    <polygon id="Shape" fill="#16BDCC" points="6.58517555 22.3777778 9.05071521 22.3777778 15.479844 17 24 26.9 21.5968791 30.5055556 13.7321196 30.5055556 8.30169051 37.4111111 7.05331599 39 0 39 0 30.5361111"></polygon>
                </g>
            </g>
        </g>
    </g>
</svg>
